src/24x24/places/folder-gruvbox-material-orange-development.svg

<?xml version="1.0" encoding="UTF-8"?>
<svg width="24" height="24" version="1" xmlns="http://www.w3.org/2000/svg">
 <rect x="2" y="9.5" width="20" height="12" rx="1" ry="1" opacity=".2"/>
 <path d="m2 17c0 0.554 0.446 1 1 1h18c0.554 0 1-0.446 1-1v-11c0-0.554-0.446-1-1-1h-9c-1.5 0-2-2-3.5-2h-5.5c-0.554 0-1 0.446-1 1" fill="#c35e0a"/>
 <rect x="2" y="8.5" width="20" height="12" rx="1" ry="1" opacity=".2"/>
 <rect x="4" y="7" width="16" height="8" rx="1" ry="1" fill="#F5E4C1"/>
 <rect x="2" y="9" width="20" height="12" rx="1" ry="1" fill="#e78a4e"/>
 <path d="m3 3c-0.554 0-1 0.446-1 1v0.5c0-0.554 0.446-1 1-1h5.5c1.5 0 2 2 3.5 2h9c0.554 0 1 0.446 1 1v-0.5c0-0.554-0.446-1-1-1h-9c-1.5 0-2-2-3.5-2z" fill="#F5E4C1" opacity=".1"/>
 <path d="m11 11v1.174a3 3 0 0 0-0.291 0.121l-0.8303-0.83-1.4141 1.414 0.8301 0.83a3 3 0 0 0-0.1191 0.291h-1.1756v2h1.1736a3 3 0 0 0 0.1211 0.291l-0.8301 0.83 1.4141 1.414 0.8303-0.83a3 3 0 0 0 0.291 0.119v1.176h2v-1.174a3 3 0 0 0 0.291-0.121l0.83 0.83 1.414-1.414-0.83-0.83a3 3 0 0 0 0.119-0.291h1.176v-2h-1.174a3 3 0 0 0-0.121-0.291l0.83-0.83-1.414-1.414-0.83 0.83a3 3 0 0 0-0.291-0.119v-1.176zm1 2a2 2 0 0 1 2 2 2 2 0 0 1-2 2 2 2 0 0 1-2-2 2 2 0 0 1 2-2z" fill="#564135"/>
</svg>

<svg xmlns="http://www.w3.org/2000/svg" width="24" height="24" version="1">
 <rect style="opacity:0.2" width="20" height="12" x="2" y="9.5" rx="1" ry="1"/>
 <path style="fill:#c35e0a" d="M 2,17 C 2,17.554 2.446,18 3,18 H 21 C 21.554,18 22,17.554 22,17 V 6 C 22,5.446 21.554,5 21,5 H 12 C 10.5,5 10,3 8.5,3 H 3 C 2.446,3 2,3.446 2,4"/>
 <rect style="opacity:0.2" width="20" height="12" x="2" y="8.5" rx="1" ry="1"/>
 <rect style="fill:#F5E4C1" width="16" height="8" x="4" y="7" rx="1" ry="1"/>
 <rect style="fill:#e78a4e" width="20" height="12" x="2" y="9" rx="1" ry="1"/>
 <path style="opacity:0.1;fill:#F5E4C1" d="M 3,3 C 2.446,3 2,3.446 2,4 V 4.5 C 2,3.946 2.446,3.5 3,3.5 H 8.5 C 10,3.5 10.5,5.5 12,5.5 H 21 C 21.554,5.5 22,5.946 22,6.5 V 6 C 22,5.446 21.554,5 21,5 H 12 C 10.5,5 10,3 8.5,3 Z"/>
 <path style="fill:#564135" d="M 11,11 V 12.174 A 3,3 0 0 0 10.709,12.295 L 9.8787,11.465 8.4646,12.879 9.2947,13.709 A 3,3 0 0 0 9.1756,14 H 8 V 16 H 9.1736 A 3,3 0 0 0 9.2947,16.291 L 8.4646,17.121 9.8787,18.535 10.709,17.705 A 3,3 0 0 0 11,17.824 V 19 H 13 V 17.826 A 3,3 0 0 0 13.291,17.705 L 14.121,18.535 15.535,17.121 14.705,16.291 A 3,3 0 0 0 14.824,16 H 16 V 14 H 14.826 A 3,3 0 0 0 14.705,13.709 L 15.535,12.879 14.121,11.465 13.291,12.295 A 3,3 0 0 0 13,12.176 V 11 Z M 12,13 A 2,2 0 0 1 14,15 2,2 0 0 1 12,17 2,2 0 0 1 10,15 2,2 0 0 1 12,13 Z"/>
</svg>
